packages/merlin-www-assets/imports/brides/icons/cta-more.svg

<svg viewBox="0 0 16 16" xmlns="http://www.w3.org/2000/svg"><path d="m8.5 7.5h7.5v1h-7.5v7.5h-1v-7.5h-7.5v-1h7.5v-7.5h1z"/></svg>

<svg xmlns="http://www.w3.org/2000/svg" viewBox="0 0 16 16"><title>aside</title>
  <path d="M8.5,7.5 L16,7.5 L16,8.5 L8.5,8.5 L8.5,16 L7.5,16 L7.5,8.5 L0,8.5 L0,7.5 L7.5,7.5 L7.5,0 L8.5,0 L8.5,7.5 Z"/>
</svg>
